assets/logos/zapier.svg

<svg width="80" height="80" viewBox="0 0 80 80" fill="none" xmlns="http://www.w3.org/2000/svg">
<path d="M48.1818 40.0139C48.1802 42.3918 47.7356 44.6683 46.9251 46.7698C44.7762 47.5629 42.447 47.9986 40.014 48.0002H39.9859C37.5543 47.9986 35.2257 47.5642 33.0768 46.7714C32.2662 44.6706 31.8198 42.3931 31.8182 40.0146V39.9869C31.8198 37.609 32.2652 35.3325 33.0746 33.2312C35.2244 32.4386 37.5533 32.0024 39.9859 32.0008H40.014C42.447 32.0024 44.7762 32.4386 46.9249 33.2312C47.7349 35.3326 48.18 37.6091 48.1816 39.987V40.0147V40.0144L48.1818 40.0139ZM72.2723 34.6667H53.1684L66.6766 21.4587C65.6161 20.0024 64.4332 18.6351 63.1401 17.371L63.1395 17.3698C61.8477 16.1069 60.4507 14.9515 58.9628 13.9154L45.4546 27.1234V8.44512C43.6578 8.14991 41.839 8.00102 40.017 8L39.9823 8C38.1605 8.00095 36.3419 8.14973 34.5453 8.4448V27.1243L21.0371 13.9163C19.5485 14.9528 18.1509 16.1088 16.8587 17.3723L16.8538 17.3766C15.5634 18.6392 14.3827 20.0045 13.324 21.4586L26.8322 34.6666H7.72761C7.72761 34.6666 7.27336 38.1754 7.27271 39.9882V40.0114C7.27339 41.7948 7.42555 43.5751 7.72761 45.3339H26.8315L13.3233 58.5419C15.4476 61.4581 18.0547 64.0072 21.0371 66.0843L34.5453 52.8766V71.5552C36.3402 71.8499 38.157 71.9987 39.9771 72H40.0239C41.8437 71.9986 43.6603 71.8498 45.455 71.5552V52.8757L58.9631 66.0837C60.4513 65.0475 61.8485 63.8919 63.1404 62.629L63.1437 62.6266C64.4352 61.3633 65.6169 59.9972 66.6766 58.5422L53.1684 45.3339H72.2723C72.5737 43.5791 72.7259 41.8029 72.7272 40.0235V39.9776C72.7258 38.1982 72.5736 36.422 72.2723 34.6672V34.6667Z" fill="#FF4A00"/>
</svg>

<svg xmlns="http://www.w3.org/2000/svg" width="80" height="80" fill="none" viewBox="0 0 80 80"><path fill="#ff4a00" d="M48.182 40.014a18.8 18.8 0 0 1-1.257 6.756A20 20 0 0 1 40.014 48h-.028a20 20 0 0 1-6.91-1.229 18.8 18.8 0 0 1-1.258-6.756v-.028a18.8 18.8 0 0 1 1.257-6.756 20 20 0 0 1 6.91-1.23h.029c2.433.001 4.762.438 6.91 1.23a18.8 18.8 0 0 1 1.258 6.756zm24.09-5.347H53.168l13.509-13.208a32.3 32.3 0 0 0-3.537-4.088v-.001a33 33 0 0 0-4.177-3.455L45.455 27.123V8.445A34 34 0 0 0 40.017 8h-.035c-1.822 0-3.64.15-5.437.445v18.68l-13.508-13.21a33 33 0 0 0-4.178 3.456l-.005.005a32.4 32.4 0 0 0-3.53 4.082l13.508 13.208H7.728s-.455 3.508-.455 5.321v.023c0 1.784.153 3.564.455 5.323h19.104l-13.51 13.209a32.6 32.6 0 0 0 7.714 7.542l13.508-13.207v18.678c1.795.295 3.612.444 5.432.445h.047a33.6 33.6 0 0 0 5.431-.445v-18.68l13.508 13.209a33 33 0 0 0 4.177-3.455l.004-.002a32.4 32.4 0 0 0 3.533-4.085L53.168 45.334h19.104c.302-1.755.454-3.531.455-5.31v-.046a31.5 31.5 0 0 0-.455-5.31z"/></svg>
